svg/u1f48a.svg

<svg viewBox="0 0 128 128" xmlns="http://www.w3.org/2000/svg">
  <g>
    <g>
      <g>
        <path d="M74.06,115.46c11.38,11.38,30.01,11.38,41.4,0l0,0c11.38-11.38,11.38-30.01,0-41.4L84.7,43.3 L43.3,84.7L74.06,115.46z" fill="#F44336"/>
        <path d="M84.7,43.3L53.94,12.54c-11.38-11.38-30.01-11.38-41.4,0l0,0c-11.38,11.38-11.38,30.01,0,41.4 L43.3,84.7L84.7,43.3z" fill="#FDD835"/>
      </g>
      <rect height="3" fill="#C62828" transform="matrix(-0.7071 0.7071 -0.7071 -0.7071 157.0703 65.0607)" width="58.55" x="35.79" y="63.56"/>
    </g>
    <g opacity="0.65">
      <path d="M69.43,36.25C81.59,49.5,103.65,74.5,103.65,74.5c2.86,2.61,6.79,9.34,4.22,11.66 c-2.74,2.48-9.12-2.75-11.98-5.36L49.22,36.89c-2.85-2.61-12.39-11.06-10.53-17.01C42.2,8.65,55.89,21.49,69.43,36.25z" fill="#FFFFFF"/>
    </g>
  </g>
</svg>

<svg viewBox="0 0 128 128" xmlns="http://www.w3.org/2000/svg">
  <defs/>
  <path d="M74.06,115.46 C85.44,126.84 104.07,126.84 115.46,115.46 L115.46,115.46 C126.84,104.08 126.84,85.45 115.46,74.06 L84.7,43.3 L43.3,84.7 L74.06,115.46 Z" fill="#F44336"/>
  <path d="M84.7,43.3 L53.94,12.54 C42.56,1.16 23.93,1.16 12.54,12.54 L12.54,12.54 C1.16,23.92 1.16,42.55 12.54,53.94 L43.3,84.7 L84.7,43.3 Z" fill="#FDD835"/>
  <path d="M86.82,45.425 L45.419,86.825 L43.298,84.704 L84.699,43.303 L86.82,45.425 Z" fill="#C62828"/>
  <path d="M69.43,36.25 C81.59,49.5 103.65,74.5 103.65,74.5 C106.51,77.11 110.44,83.84 107.87,86.16 C105.13,88.64 98.75,83.41 95.89,80.8 L49.22,36.89 C46.37,34.28 36.83,25.83 38.69,19.88 C42.2,8.65 55.89,21.49 69.43,36.25 Z" fill="#FFFFFF" opacity="0.65"/>
</svg>
